src/4-icons/hand-over-document.svg

<svg width="260" height="260" viewBox="0 0 260 260" fill="none" xmlns="http://www.w3.org/2000/svg">
<path d="M220.786 194.155L240.278 250.314" stroke="black" stroke-width="8" stroke-linecap="round" stroke-linejoin="round"/>
<path d="M117.046 106.399L106.96 67.9739C106.56 66.4532 105.851 65.0315 104.876 63.7981C103.901 62.5646 102.682 61.5461 101.294 60.8064C99.9068 60.0667 98.3815 59.6219 96.814 59.4998C95.2465 59.3777 93.6707 59.581 92.1855 60.0969V60.0969C89.5221 61.0191 87.295 62.8957 85.9344 65.364C84.5737 67.8324 84.1761 70.7174 84.8183 73.4618C89.6565 94.1138 100.472 140.046 102.462 145.774C109.219 165.256 120.115 205.061 146.814 217.406L156.031 250.394" stroke="black" stroke-width="8" stroke-linecap="round" stroke-linejoin="round"/>
<path d="M144.755 105.689L132.959 69.703L123.613 41.164C123.139 39.7167 122.382 38.3783 121.386 37.2268C120.39 36.0753 119.174 35.1339 117.81 34.4574C116.445 33.7809 114.96 33.3829 113.44 33.2866C111.921 33.1903 110.397 33.3978 108.959 33.8968V33.8968C106.231 34.8442 103.961 36.7859 102.603 39.3339C101.244 41.882 100.898 44.8488 101.631 47.6415L110.878 82.8979L119.185 114.596" stroke="black" stroke-width="8" stroke-linecap="round" stroke-linejoin="round"/>
<path d="M167.667 88.8261L142.836 21.1221C141.73 18.1081 139.484 15.6492 136.582 14.275C133.68 12.9008 130.355 12.7212 127.322 13.7749V13.7749C124.287 14.8266 121.787 17.0285 120.36 19.9062C118.934 22.7838 118.695 26.1068 119.695 29.159L133.48 71.2428L143.066 100.542" stroke="black" stroke-width="8" stroke-linecap="round" stroke-linejoin="round"/>
<path d="M195.096 83.9675L191.227 74.9709L169.455 25.0601C168.265 22.3277 166.087 20.1455 163.357 18.95C160.627 17.7546 157.546 17.6341 154.731 18.6126V18.6126C153.247 19.1273 151.881 19.9323 150.712 20.9808C149.542 22.0292 148.594 23.3001 147.921 24.7192C147.248 26.1383 146.865 27.6772 146.793 29.246C146.721 30.8149 146.963 32.3823 147.504 33.8568L159.229 65.8445L170.565 96.7526" stroke="black" stroke-width="8" stroke-linecap="round" stroke-linejoin="round"/>
<path d="M146.914 233.91C145.224 233.913 143.547 233.609 141.966 233.01L14.585 185.289C11.9104 184.275 9.6062 182.475 7.97672 180.124C6.34723 177.773 5.46916 174.984 5.4585 172.124C5.45777 170.44 5.7626 168.77 6.35815 167.196L55.3393 36.516C55.9912 34.7828 56.9783 33.1951 58.2441 31.8435C59.5099 30.4919 61.0297 29.403 62.7165 28.6391L116.846 4.23844C118.52 3.47998 120.327 3.05871 122.164 2.99868C124.001 2.93865 125.831 3.24104 127.552 3.88857L215.518 36.8759C219.009 38.1864 221.836 40.8296 223.379 44.2243C224.922 47.6189 225.053 51.4873 223.745 54.9789L160.069 224.814C159.061 227.487 157.262 229.79 154.912 231.416C152.561 233.041 149.772 233.911 146.914 233.91Z" fill="white"/>
<path d="M122.613 5.48788C124.003 5.49106 125.38 5.74154 126.682 6.2276L214.648 39.2149C217.517 40.2943 219.84 42.4676 221.109 45.2579C222.378 48.0482 222.488 51.2278 221.415 54.0992L157.73 223.914C157.2 225.336 156.394 226.64 155.359 227.751C154.324 228.862 153.08 229.757 151.698 230.386C150.316 231.014 148.824 231.364 147.306 231.415C145.789 231.465 144.276 231.216 142.856 230.681L15.4647 182.93C14.0445 182.399 12.7427 181.594 11.6338 180.561C10.5248 179.527 9.63056 178.285 9.00205 176.905C8.37354 175.526 8.02312 174.036 7.97083 172.521C7.91853 171.006 8.1654 169.495 8.6973 168.075L57.6785 37.3956C58.7648 34.519 60.9465 32.1899 63.7461 30.9181L117.875 6.51749C119.365 5.84898 120.981 5.50809 122.613 5.51787V5.48788ZM122.613 0.519792C120.265 0.519867 117.943 1.02439 115.806 1.99922L61.6869 26.3599C57.6739 28.1833 54.5468 31.5224 52.9903 35.6463L4.00911 166.326C3.32986 168.183 2.99123 170.147 3.00949 172.124C3.0163 175.486 4.04205 178.768 5.95149 181.536C7.86092 184.303 10.5644 186.427 13.7054 187.628L141.096 235.379C143.132 236.142 145.299 236.497 147.472 236.423C149.645 236.348 151.782 235.846 153.761 234.946C155.74 234.046 157.522 232.764 159.006 231.175C160.49 229.585 161.646 227.719 162.408 225.683L226.084 55.8385C227.62 51.7262 227.463 47.1725 225.647 43.1756C223.832 39.1788 220.505 36.0649 216.397 34.5167L128.431 1.5294C126.57 0.836701 124.599 0.484557 122.613 0.489804V0.519792Z" fill="white"/>
<path d="M16.8641 179.211L144.245 226.963C146.124 227.663 148.203 227.59 150.028 226.76C151.853 225.93 153.274 224.41 153.981 222.534L217.657 52.6697C218.346 50.7963 218.267 48.7261 217.435 46.9113C216.604 45.0965 215.088 43.6844 213.219 42.9834L125.252 9.99608C123.385 9.29351 121.315 9.35819 119.495 10.176L65.3855 34.5566C64.4732 34.9657 63.6504 35.5505 62.9643 36.2778C62.2783 37.0051 61.7423 37.8604 61.387 38.795L12.4058 169.475C12.0586 170.407 11.8985 171.398 11.9347 172.392C11.9709 173.386 12.2026 174.363 12.6167 175.267C13.0308 176.171 13.619 176.985 14.3478 177.662C15.0766 178.339 15.9317 178.865 16.8641 179.211Z" fill="white" stroke="black" stroke-width="8" stroke-linecap="round" stroke-linejoin="round"/>
<path d="M171.585 102.241L78.1606 67.2241" stroke="black" stroke-width="8" stroke-linecap="round" stroke-linejoin="round"/>
<path d="M162.888 125.132L69.4639 90.1152" stroke="black" stroke-width="8" stroke-linecap="round" stroke-linejoin="round"/>
<path d="M154.402 147.783L60.9775 112.767" stroke="black" stroke-width="8" stroke-linecap="round" stroke-linejoin="round"/>
<path d="M146.194 170.534L93.5347 150.802" stroke="black" stroke-width="8" stroke-linecap="round" stroke-linejoin="round"/>
<path d="M62.6064 37.1959L100.852 51.5304C101.78 51.8799 102.769 52.0428 103.761 52.0098C104.752 51.9768 105.728 51.7486 106.631 51.3382C107.534 50.9278 108.348 50.3433 109.025 49.6182C109.703 48.893 110.23 48.0414 110.578 47.1121L124.003 11.2959" stroke="black" stroke-width="8" stroke-linecap="round" stroke-linejoin="round"/>
<path d="M201.723 135.368C203.801 130.148 204.836 124.572 204.772 118.954L201.553 110.248L195.556 93.9241L201.553 110.248L195.556 93.9241C194.172 90.2184 194.188 86.1354 195.599 82.4404C197.011 78.7453 199.721 75.6917 203.223 73.8518C204.727 73.0594 206.484 72.8942 208.109 73.3924C209.735 73.8906 211.097 75.0116 211.899 76.5108L223.745 98.5923L214.038 80.4893L223.745 98.5923C226.564 104.59 229.379 110.564 232.191 116.515C235.09 123.243 234.81 124.732 235.05 129.69C237.22 175.033 232.811 183.74 212.679 196.964" fill="white"/>
<path d="M201.723 135.368C203.801 130.148 204.836 124.572 204.772 118.954L201.553 110.248L195.556 93.9241L201.553 110.248L195.556 93.9241C194.172 90.2184 194.188 86.1354 195.599 82.4404C197.011 78.7453 199.721 75.6917 203.223 73.8518V73.8518C204.727 73.0594 206.484 72.8942 208.109 73.3924C209.735 73.8906 211.097 75.0116 211.899 76.5108L223.745 98.5923L214.038 80.4893L223.745 98.5923C226.564 104.59 229.379 110.564 232.191 116.515C235.09 123.243 234.81 124.732 235.05 129.69C237.22 175.033 232.811 183.74 212.679 196.964" stroke="black" stroke-width="8" stroke-linecap="round" stroke-linejoin="round"/>
</svg>

<svg width="260" height="260" fill="none" xmlns="http://www.w3.org/2000/svg"><path d="m220.786 194.155 19.492 56.159M117.046 106.399 106.96 67.974a11.415 11.415 0 0 0-5.666-7.168 11.404 11.404 0 0 0-9.108-.71v0a11.395 11.395 0 0 0-7.368 13.366c4.838 20.652 15.654 66.584 17.644 72.312 6.757 19.482 17.653 59.287 44.352 71.632l9.217 32.988" stroke="#000" stroke-width="8" stroke-linecap="round" stroke-linejoin="round"/><path d="m144.755 105.689-11.796-35.986-9.346-28.539a11.48 11.48 0 0 0-5.803-6.707 11.473 11.473 0 0 0-8.851-.56v0a11.464 11.464 0 0 0-7.328 13.745l9.247 35.256 8.307 31.698" stroke="#000" stroke-width="8" stroke-linecap="round" stroke-linejoin="round"/><path d="m167.667 88.826-24.831-67.704a12.243 12.243 0 0 0-15.514-7.347v0a12.247 12.247 0 0 0-7.627 15.384l13.785 42.084 9.586 29.299" stroke="#000" stroke-width="8" stroke-linecap="round" stroke-linejoin="round"/><path d="m195.096 83.968-3.869-8.997-21.772-49.91a11.825 11.825 0 0 0-14.724-6.448v0a11.82 11.82 0 0 0-6.81 6.106 11.83 11.83 0 0 0-.417 9.138l11.725 31.987 11.336 30.909" stroke="#000" stroke-width="8" stroke-linecap="round" stroke-linejoin="round"/><path d="M146.914 233.91a13.895 13.895 0 0 1-4.948-.9L14.585 185.289a14.136 14.136 0 0 1-9.127-13.165c0-1.684.305-3.354.9-4.928L55.34 36.516a14.094 14.094 0 0 1 7.378-7.877l54.129-24.4a13.993 13.993 0 0 1 10.706-.35l87.966 32.987a14.065 14.065 0 0 1 8.227 18.103L160.07 224.814a14.056 14.056 0 0 1-13.155 9.096Z" fill="#fff"/><path d="M122.613 5.488c1.39.003 2.767.254 4.069.74l87.966 32.987a11.576 11.576 0 0 1 6.767 14.884L157.73 223.914a11.545 11.545 0 0 1-6.032 6.472 11.546 11.546 0 0 1-8.842.295L15.465 182.93a11.535 11.535 0 0 1-6.767-14.855l48.98-130.68a11.626 11.626 0 0 1 6.068-6.477l54.129-24.4a11.408 11.408 0 0 1 4.738-1v-.03Zm0-4.968c-2.348 0-4.67.504-6.807 1.48l-54.12 24.36a16.663 16.663 0 0 0-8.696 9.286L4.01 166.326a16.436 16.436 0 0 0-1 5.798 16.636 16.636 0 0 0 10.695 15.504l127.391 47.751a16.565 16.565 0 0 0 6.376 1.044 16.573 16.573 0 0 0 11.534-5.248 16.552 16.552 0 0 0 3.402-5.492l63.676-169.844a16.584 16.584 0 0 0-9.687-21.322L128.431 1.529a16.554 16.554 0 0 0-5.818-1.04v.03Z" fill="#fff"/><path d="m16.864 179.211 127.381 47.752a7.578 7.578 0 0 0 9.736-4.429L217.657 52.67a7.558 7.558 0 0 0-4.438-9.687L125.252 9.996a7.555 7.555 0 0 0-5.757.18l-54.11 24.38a7.608 7.608 0 0 0-3.998 4.239l-48.981 130.68a7.566 7.566 0 0 0 4.458 9.736Z" fill="#fff" stroke="#000" stroke-width="8" stroke-linecap="round" stroke-linejoin="round"/><path d="M171.585 102.241 78.161 67.224m84.727 57.908L69.464 90.115m84.938 57.668-93.424-35.016m85.216 57.767-52.66-19.732M62.606 37.196l38.246 14.334a7.544 7.544 0 0 0 9.726-4.418l13.425-35.816" stroke="#000" stroke-width="8" stroke-linecap="round" stroke-linejoin="round"/><path d="M201.723 135.368a43.052 43.052 0 0 0 3.049-16.414l-3.219-8.706-5.997-16.324 5.997 16.324-5.997-16.324a16.252 16.252 0 0 1 7.667-20.072 6.436 6.436 0 0 1 8.676 2.659l11.846 22.081-9.707-18.103 9.707 18.103a9638.973 9638.973 0 0 0 8.446 17.923c2.899 6.728 2.619 8.217 2.859 13.175 2.17 45.343-2.239 54.05-22.371 67.274" fill="#fff"/><path d="M201.723 135.368a43.052 43.052 0 0 0 3.049-16.414l-3.219-8.706-5.997-16.324 5.997 16.324-5.997-16.324a16.252 16.252 0 0 1 7.667-20.072v0a6.436 6.436 0 0 1 8.676 2.659l11.846 22.081-9.707-18.103 9.707 18.103a9638.973 9638.973 0 0 0 8.446 17.923c2.899 6.728 2.619 8.217 2.859 13.175 2.17 45.343-2.239 54.05-22.371 67.274" stroke="#000" stroke-width="8" stroke-linecap="round" stroke-linejoin="round"/></svg>
